wp-content/themes/cls/dist/assets/images/cls-logo.svg

<svg xmlns="http://www.w3.org/2000/svg" viewBox="0 0 127 167">
  <g fill="none" fill-rule="evenodd">
    <path d="M51.885 69.529c-9.554 0-17.299-7.745-17.299-17.299 0-9.553 7.745-17.298 17.299-17.298H72.94V.346H51.885C23.229.346 0 23.576 0 52.23c0 28.655 23.229 51.885 51.885 51.885H72.94V69.529H51.885" fill="#22355B" mask="url(#mask-2)"/>
    <path fill="#79619B" mask="url(#mask-2)" d="M124.825 52.23L72.94.346h51.885V52.23"/>
    <path fill="#E9846B" mask="url(#mask-2)" d="M72.94 104.115l51.885-51.885v51.885H72.94"/>
    <path d="M42.813 148.677l8.2 1.676C48.964 161.038 40.515 167 30.514 167c-12.236 0-21.865-9.503-21.865-21.739 0-12.177 9.629-21.742 21.865-21.742 10.001 0 18.388 6.024 20.499 16.026l-8.2 2.298c-1.552-7.205-6.521-10.373-12.299-10.373-7.454 0-13.354 5.901-13.354 13.791 0 7.887 5.9 13.851 13.354 13.851 5.778 0 10.747-3.168 12.299-10.435M88.102 166.069h-29.94V124.45h8.447v33.978h21.493v7.641M125.872 135.508l-8.447 1.738c-.623-3.912-4.039-6.46-8.2-6.46-4.224 0-6.771 2.361-6.771 5.156 0 2.112.931 3.603 4.162 4.224l8.944 1.802c6.772 1.429 10.934 5.466 10.934 11.926 0 8.075-6.648 13.106-16.524 13.106-8.696 0-16.337-4.037-17.392-12.362l8.883-1.799c1.117 4.719 4.596 6.769 9.317 6.769 4.845 0 7.392-2.298 7.392-5.279 0-2.36-1.118-3.789-4.845-4.535l-8.821-1.677c-4.97-1.056-10.933-3.789-10.933-11.927 0-7.453 6.088-12.671 15.841-12.671 8.447 0 14.846 4.597 16.46 11.989" fill="#22355B" mask="url(#mask-2)"/>
  </g>
</svg>

<?xml version="1.0" encoding="UTF-8"?>
<svg width="127px" height="167px" viewBox="0 0 127 167" version="1.1" xmlns="http://www.w3.org/2000/svg" xmlns:xlink="http://www.w3.org/1999/xlink">
    <title>cls-logo</title>
    <defs>
        <polygon id="path-1" points="0 0.346 126.493 0.346 126.493 166.94 0 166.94"></polygon>
    </defs>
    <g id="cls-logo" stroke="none" stroke-width="1" fill="none" fill-rule="evenodd">
        <g id="cls-logo-small">
            <!-- <mask id="mask-2" fill="white">
                <use xlink:href="#path-1"></use>
            </mask> -->
            <g id="Clip-2"></g>
            <path d="M51.885,69.529 C42.331,69.529 34.586,61.784 34.586,52.23 C34.586,42.677 42.331,34.932 51.885,34.932 L72.94,34.932 L72.94,0.346 L51.885,0.346 C23.229,0.346 0,23.576 0,52.23 C0,80.885 23.229,104.115 51.885,104.115 L72.94,104.115 L72.94,69.529 L51.885,69.529" id="Fill-1" fill="#22355B" mask="url(#mask-2)"></path>
            <polyline id="Fill-3" fill="#79619B" mask="url(#mask-2)" points="124.825 52.23 124.825 52.23 72.94 0.346 124.825 0.346 124.825 52.23"></polyline>
            <polyline id="Fill-4" fill="#E9846B" mask="url(#mask-2)" points="72.94 104.115 72.94 104.115 124.825 52.23 124.825 104.115 72.94 104.115"></polyline>
            <path d="M42.813,148.677 L51.013,150.353 C48.964,161.038 40.515,167 30.514,167 C18.278,167 8.649,157.497 8.649,145.261 C8.649,133.084 18.278,123.519 30.514,123.519 C40.515,123.519 48.902,129.543 51.013,139.545 L42.813,141.843 C41.261,134.638 36.292,131.47 30.514,131.47 C23.06,131.47 17.16,137.371 17.16,145.261 C17.16,153.148 23.06,159.112 30.514,159.112 C36.292,159.112 41.261,155.944 42.813,148.677" id="Fill-5" fill="#22355B" mask="url(#mask-2)"></path>
            <polyline id="Fill-6" fill="#22355B" mask="url(#mask-2)" points="88.102 166.069 58.162 166.069 58.162 124.45 66.609 124.45 66.609 158.428 88.102 158.428 88.102 166.069"></polyline>
            <path d="M125.872,135.508 L117.425,137.246 C116.802,133.334 113.386,130.786 109.225,130.786 C105.001,130.786 102.454,133.147 102.454,135.942 C102.454,138.054 103.385,139.545 106.616,140.166 L115.56,141.968 C122.332,143.397 126.494,147.434 126.494,153.894 C126.494,161.969 119.846,167 109.97,167 C101.274,167 93.633,162.963 92.578,154.638 L101.461,152.839 C102.578,157.558 106.057,159.608 110.778,159.608 C115.623,159.608 118.17,157.31 118.17,154.329 C118.17,151.969 117.052,150.54 113.325,149.794 L104.504,148.117 C99.534,147.061 93.571,144.328 93.571,136.19 C93.571,128.737 99.659,123.519 109.412,123.519 C117.859,123.519 124.258,128.116 125.872,135.508" id="Fill-7" fill="#22355B" mask="url(#mask-2)"></path>
        </g>
    </g>
</svg>
